icon-themes/breeze_svg/cmd/32/dbnewform.svg

<svg viewBox="0 0 32 32" xmlns="http://www.w3.org/2000/svg"><path d="m4 4v24h15v-1h-14v-18h22v10h1v-15zm16.566406 1 .470703.2792969 2.464844 1.4570312 2.460938-1.4570312.470703-.2792969.566406.9296875-.472656.2792969-3.025391 1.7910156-3.029297-1.7910156-.472656-.2792969zm-10.566406 6a3 3 0 0 0 -3 3 3 3 0 0 0 3 3 3 3 0 0 0 3-3 3 3 0 0 0 -3-3zm0 1a2 2 0 0 1 2 2 2 2 0 0 1 -2 2 2 2 0 0 1 -2-2 2 2 0 0 1 2-2zm6 0v1h9v-1zm0 3v1h7v-1zm-9 4v6h6v-6zm1 1h4v4h-4zm8 0v1h3v-1zm0 3v1h1v-1z" fill="#4d4d4d"/><path d="m23 19v4h-4v1h4v4h1v-4h4v-1h-4v-4z" fill="#1d99f3"/></svg>

<svg xmlns="http://www.w3.org/2000/svg" viewBox="0 0 32 32">
 <path 
     style="fill:#4d4d4d" 
     d="M 4 4 L 4 28 L 19 28 L 19 27 L 5 27 L 5 9 L 27 9 L 27 19 L 28 19 L 28 4 L 4 4 z M 20.566406 5 L 21.037109 5.2792969 L 23.501953 6.7363281 L 25.962891 5.2792969 L 26.433594 5 L 27 5.9296875 L 26.527344 6.2089844 L 23.501953 8 L 20.472656 6.2089844 L 20 5.9296875 L 20.566406 5 z M 10 11 A 3 3 0 0 0 7 14 A 3 3 0 0 0 10 17 A 3 3 0 0 0 13 14 A 3 3 0 0 0 10 11 z M 10 12 A 2 2 0 0 1 12 14 A 2 2 0 0 1 10 16 A 2 2 0 0 1 8 14 A 2 2 0 0 1 10 12 z M 16 12 L 16 13 L 25 13 L 25 12 L 16 12 z M 16 15 L 16 16 L 23 16 L 23 15 L 16 15 z M 7 19 L 7 25 L 13 25 L 13 19 L 7 19 z M 8 20 L 12 20 L 12 24 L 8 24 L 8 20 z M 16 20 L 16 21 L 19 21 L 19 20 L 16 20 z M 16 23 L 16 24 L 17 24 L 17 23 L 16 23 z "
     />
 <path 
     style="fill:#1d99f3" 
     d="M 23 19 L 23 23 L 19 23 L 19 24 L 23 24 L 23 28 L 24 28 L 24 24 L 28 24 L 28 23 L 24 23 L 24 19 L 23 19 z "
     />
</svg>
